X:1
T:Yo Hanino, Tu Hanina
C:Flory Jagoda
O:Sephardic, Ladino
F:https://www.youtube.com/watch?v=vg-oltevdMo
Z:Avetik Topchyan
M:4/4
Q:1/4=130
K:Gphr =B
V:G1
V:G2
%%score (G1 G2)
%%MIDI program 24
P:Intro
[V:G1] DEFG  AA/G/    FE        | D2    DE   {E}DC   B,2  | DEFG  AG   A/G/F       | F4          B    z3  |
[V:G2] B,CDE FF/E/    DC        | B,2   B,C  {C}B,A, G,2  | B,CDE FE   F/E/D       | D4          G    z3  |
[V:G1] DEFG  AG{G}FE            | FEED  D2   DE           | F2    FE   EDDE        | {E}DCCB,    B,2  z2  | {a}gf g2 z4 ||
[V:G2] B,CDE FE{D}DC            | DCCB, B,2  B,C          | D2    DC   CB,B,C      | {C}B,A,A,G, G,2  z2  | {A}GF G2 z4 ||
P:Verse
[V:G1] B2    (Bc)(de) f2        | (fe)  (ed) (dc)    (cB) | B2    (Bc) (de)   f2   | a2          (gf) f4  |
[V:G2] G2    (GA)(Bc) d2        | (dc)  (cB) (BA)    (AG) | G2    (GA) (Bc)   d2   | f2          (ed) d4  |
w: Yo ha - ni - no,               Tu*   ha - ni - na,       moz   ta - ma - re -     mos         los*  doz 
[V:G1] |: a2    a2    (ag) (gf) | f2    (ef) e2      (de) | f2    fe   (ed)   (de) | (dc)        (cB) B4 :|
[V:G2] |: f2    f2    (fe) (ed) | d2    (cd) c2      (Bc) | d2    dc   (cB)   (Bc) | (BA)        (AG) G4 :|
w: Loz i-ji \- kos *              ke    moz * na \- sen     Ko-   mo la lu \- na *   i *         el * sol
P:Chorus
[V:G1] |: aaaa  aggf            | feef  e2   (de)         | f2    (fe) (ed)   (de) | (dc)        (cB) B4 :|
[V:G2] |: ffff  feed            | dccd  c2   (Bc)         | d2    (dc) (cB)   (Bc) | (BA)        (AG) G4 :|
w:Aman* aman* aman* aman*         aman* aman* a-man *       ko-mo la    lu *  na *   i *         el * sol

